X:1
T:Sunbury
T:Henry Alline, 1786            86. 86. (C. M.) 
T:Transcribed from Harmonia Americana, 1791.
T:A minor                Samuel Holyoke, 1791 
%%score [ 1 2 3 4 ]
L:1/8
Q:1/4=120
M:3/2
K:C
V:1 treble nm="Tr." snm="Tr."
V:2 treble nm="C." snm="C."
V:3 treble-8 nm="T." snm="T."
V:4 bass nm="B." snm="B."
V:1
 A4 | (A3 B c4) (c3 B) | (A6 B2) c4 | (c3 d e4) A4 | ^G8 G4 | A8 B4 | A8 G4 | G8 c4 | c8 (B2 A2) | %9
w: 1. Hard|heart * * of *|mine, * O|that * * the|Lord Would|this hard|heart sub-|due! O|come, thou *|
w: 2. I|hear * * the *|heav'n * ly|pil- * * grims|tell Their|sins are|all for-|given, And|while on *|
 ^G8 c4 | B8 A4 | A8 G4 | (G4 c2 B2) A4 | A4 ^G8 | A12 |] %15
w: blest life-|gi- ving|word, And|form * * my|soul a-|new.|
w: earth their|bo- dies|dwell, Their|souls * * en-|joy a|heav'n.|
V:2
 E4 | E8 E4 | (D3 E F4) E4 | (E3 F G4) F4 | E8 E4 | E8 G4 | F8 D4 | E8 E4 | (E3 F G4) F4 | E8 G4 | %10
w: 3. While|I, poor|wretch, * * in|dark- * * ness|stand, With|guilt a|hea- vy|load; And|eve- * * ry|breath ex-|
w: 4. The|Chris- tians|sing * * re-|dee- * * ming|love, And|talk of|joys di-|vine; And|soon * * they|say in|
 (G6 F2) E4 | ^F8 D4 | (E3 F G4) C4 | F4 E8 | E12 |] %15
w: posed * to|land Be-|yond * * the|grace of|God.|
w: realms * a-|bove In|glo- * * ry|they shall|shine.|
V:3
 E4 | A8 E4 | (F6 G2) A4 | (G4 c4) c4 | B8 B4 | (c6 d2) (e3 d) | c8 B4 | c8 G4 | %8
w: 5. But|ah! It's|all * an|un- * known|tongue; I|ne- * ver *|knew that|love; I|
w: 6. I|want, O|God, * I|know * not|what! I|want * what *|saints en-|joy; O|
 (c3 d e4) (d2 c2) | B8 e4 | d8 ^c4 | d8 B4 | (c3 d e4) (A3 B) | c4 B8 | A12 |] %15
w: can- * * not *|sing that|heav'n- ly|song, Nor|tell * * of *|joys a-|bove.|
w: let * * their *|por- tion|be my|lot, Their|work * * be *|my em-|ploy.|
V:4
 A,,4 | A,,8 A,,4 | D,8 A,,4 | C,8 D,4 | E,8 E,4 | A,8 E,4 | F,8 G,4 | C,8 C,4 | C,8 D,4 | %9
w: 7. Fain|would I|know that|Sa- vior|mine, And|taste his|blee- ding|love, With|all the|
w: 8. Then|O to|those trans-|por- ting|realms My|soul would|soar a-|way; Where|all the|
 E,8 C,4 | G,8 A,4 | D,8 G,4 | C,8 F,4 | D,4 E,8 | A,,12 |] %15
w: heav'n- ly|pil- grims|join, While|I this|de- sert|rove.|
w: war- riors|wear their|palms In|ev- er-|las- ting|day.|

